X: 1
T:Count Dickie
M:6/8
L:1/8
Q:80
C:Michael Grey
S:Jig
K:HP
|: e|
{g}Ae{g}G{g}A{d}A{e}A|
g{a}gaged|
e{g}d{c}d{g}de{g}B|  !
{g}B{d}A{e}A{g}BAG|
{g}Ae{g}G{g}A{d}A{e}A|
g{a}gaged|  !
e{g}d{c}d{g}deg|
{a}ed{e}B{G}A2:| |:
e|  !
{g}ea{g}aged|
{g}de{g}A{g}B{d}A{e}A|
{g}G{d}B{e}B{g}B{d}A{e}A|  !
{g}G{d}B{e}G{g}Bde|1
{g}ea{g}aged|
{g}de{g}A{g}Beg|  !
ag{a}e{A}e{g}eg|
{a}ed{e}B{G}A2:| |:
e|  !
{g}A{d}B{e}A{g}G{d}A{e}A|
g{a}ge{g}ed{c}d|
{g}B{d}Bd{g}de{A}e|  !
{g}Bd{e}A{g}B{d}G{e}G|
{g}A{d}B{e}A{g}G{d}A{e}A|
g{a}ge{g}ed{c}d|  !
{g}B{d}Be{g}eg{f}g|
{a}ed{e}B{G}A2:| |:
e|  !
{g}A{d}Ggag{a}e|
g{a}gaged|
{g}d{e}B{d}Bed{c}d|  !
{g}Bd{e}A{g}B{d}G{e}G|1
{g}A{d}Ggag{a}e|
g{a}gaged|  !
{g}B{d}Be{g}eg{f}g|
{a}ed{e}B{G}A2:|2
{g}A{d}B{e}G{g}A{d}Bd|  !
{g}Ae{g}A{g}Aeg|
ag{a}e{A}e{g}eg|
{a}ed{e}B{G}A2|]  !
